2 Export/Icons/Brands/Safari.svg

<svg xmlns="http://www.w3.org/2000/svg" xmlns:xlink="http://www.w3.org/1999/xlink" width="24" height="24" viewBox="0 0 24 24">
  <defs>
    <path id="safari-a" d="M12,21 C7.02975,21 3,16.97025 3,12 C3,7.02975 7.02975,3 12,3 C16.97025,3 21,7.02975 21,12 C21,16.97025 16.97025,21 12,21 Z M12,20.4375 C16.65975,20.4375 20.4375,16.65975 20.4375,12 C20.4375,7.34025 16.65975,3.5625 12,3.5625 C7.34025,3.5625 3.5625,7.34025 3.5625,12 C3.5625,16.65975 7.34025,20.4375 12,20.4375 Z M12,4.5 C12.1035534,4.5 12.1875,4.58394661 12.1875,4.6875 L12.1875,5.4375 C12.1875,5.54105339 12.1035534,5.625 12,5.625 C11.8964466,5.625 11.8125,5.54105339 11.8125,5.4375 L11.8125,4.6875 C11.8125,4.58394661 11.8964466,4.5 12,4.5 Z M12,18.375 C12.1035534,18.375 12.1875,18.4589466 12.1875,18.5625 L12.1875,19.3125 C12.1875,19.4160534 12.1035534,19.5 12,19.5 C11.8964466,19.5 11.8125,19.4160534 11.8125,19.3125 L11.8125,18.5625 C11.8125,18.4589466 11.8964466,18.375 12,18.375 Z M17.30325,6.69675 C17.376197,6.76992558 17.376197,6.88832442 17.30325,6.9615 L16.773,7.4925 C16.725573,7.53992701 16.6564466,7.55844936 16.5916601,7.54108987 C16.5268736,7.52373038 16.4762696,7.47312637 16.4589101,7.40833987 C16.4415506,7.34355338 16.460073,7.27442701 16.5075,7.227 L17.0385,6.69675 C17.1116756,6.62380296 17.2300744,6.62380296 17.30325,6.69675 Z M7.4925,16.5075 C7.52776564,16.5426766 7.54758517,16.5904398 7.54758517,16.64025 C7.54758517,16.6900602 7.52776564,16.7378234 7.4925,16.773 L6.9615,17.30325 C6.91518648,17.35506 6.84401621,17.3770058 6.77656772,17.3602749 C6.70911923,17.343544 6.65645604,17.2908808 6.63972514,17.2234323 C6.62299423,17.1559838 6.64493997,17.0848135 6.69675,17.0385 L7.227,16.5075 C7.2621766,16.4722344 7.30993978,16.4524148 7.35975,16.4524148 C7.40956022,16.4524148 7.4573234,16.4722344 7.4925,16.5075 L7.4925,16.5075 Z M6.69675,6.6975 C6.76992558,6.62455296 6.88832442,6.62455296 6.9615,6.6975 L7.4925,7.22775 C7.53992701,7.27517701 7.55844936,7.34430338 7.54108987,7.40908987 C7.52373038,7.47387637 7.47312637,7.52448038 7.40833987,7.54183987 C7.34355338,7.55919936 7.27442701,7.54067701 7.227,7.49325 L6.69675,6.96225 C6.62380296,6.88907442 6.62380296,6.77067558 6.69675,6.6975 Z M16.5075,16.5075 C16.5426766,16.4722344 16.5904398,16.4524148 16.64025,16.4524148 C16.6900602,16.4524148 16.7378234,16.4722344 16.773,16.5075 L17.30325,17.0385 C17.35506,17.0848135 17.3770058,17.1559838 17.3602749,17.2234323 C17.343544,17.2908808 17.2908808,17.343544 17.2234323,17.3602749 C17.1559838,17.3770058 17.0848135,17.35506 17.0385,17.30325 L16.5075,16.773 C16.4722344,16.7378234 16.4524148,16.6900602 16.4524148,16.64025 C16.4524148,16.5904398 16.4722344,16.5426766 16.5075,16.5075 Z M4.5,12 C4.5,11.8964466 4.58394661,11.8125 4.6875,11.8125 L5.4375,11.8125 C5.54105339,11.8125 5.625,11.8964466 5.625,12 C5.625,12.1035534 5.54105339,12.1875 5.4375,12.1875 L4.6875,12.1875 C4.58394661,12.1875 4.5,12.1035534 4.5,12 Z M18.375,12 C18.375,11.8964466 18.4589466,11.8125 18.5625,11.8125 L19.3125,11.8125 C19.4160534,11.8125 19.5,11.8964466 19.5,12 C19.5,12.1035534 19.4160534,12.1875 19.3125,12.1875 L18.5625,12.1875 C18.4589466,12.1875 18.375,12.1035534 18.375,12 Z M14.93025,5.09625 C14.9761358,5.11560036 15.0124389,5.15240978 15.031152,5.19855919 C15.049865,5.24470859 15.0494505,5.29640655 15.03,5.34225 L14.73675,6.03225 C14.7123995,6.0965115 14.6548458,6.14230331 14.5867559,6.15159069 C14.518666,6.16087808 14.450951,6.13217279 14.4102798,6.07678017 C14.3696086,6.02138755 14.3624986,5.94818395 14.39175,5.886 L14.68425,5.196 C14.7036004,5.15011418 14.7404098,5.11381106 14.7865592,5.09509803 C14.8327086,5.07638501 14.8844065,5.07679947 14.93025,5.09625 L14.93025,5.09625 Z M9.51,17.86875 C9.60485562,17.9093383 9.64909674,18.0189356 9.609,18.114 L9.3165,18.804 C9.2736243,18.8951472 9.16639368,18.936132 9.07365434,18.8968186 C8.980915,18.8575052 8.93580786,18.7519424 8.9715,18.65775 L9.264,17.96775 C9.28335036,17.9218642 9.32015978,17.8855611 9.36630919,17.866848 C9.41245859,17.848135 9.46415655,17.8485495 9.51,17.868 L9.51,17.86875 Z M18.954,9.18975 C18.9925808,9.28563908 18.9462866,9.39466539 18.8505,9.4335 L18.15525,9.71475 C18.0930858,9.73993723 18.0222065,9.73004697 17.9693116,9.68880479 C17.9164167,9.64756262 17.8895422,9.58123419 17.8988116,9.51480479 C17.9080809,9.44837539 17.9520858,9.39193722 18.01425,9.36675 L18.7095,9.08625 C18.7556418,9.06748582 18.8073537,9.06785306 18.8532244,9.0872707 C18.899095,9.10668834 18.935354,9.1435603 18.954,9.18975 L18.954,9.18975 Z M6.08925,14.38725 C6.10801418,14.4333918 6.10764694,14.4851037 6.0882293,14.5309744 C6.06881166,14.576845 6.0319397,14.613104 5.98575,14.63175 L5.2905,14.91225 C5.22793942,14.9401576 5.15513881,14.9317265 5.10061265,14.8902589 C5.04608649,14.8487913 5.01851468,14.7808884 5.02869651,14.7131463 C5.03887834,14.6454042 5.085193,14.5886066 5.1495,14.565 L5.84475,14.28375 C5.89089182,14.2649858 5.94260371,14.2653531 5.98847436,14.2847707 C6.03434502,14.3041883 6.070604,14.3410603 6.08925,14.38725 L6.08925,14.38725 Z M9.1905,5.046 C9.28638908,5.00741917 9.39541539,5.05371342 9.43425,5.1495 L9.7155,5.84475 C9.74068722,5.90691421 9.73079697,5.97779354 9.68955479,6.03068842 C9.64831262,6.0835833 9.58198419,6.11045775 9.51555479,6.10118842 C9.44912539,6.09191909 9.39268722,6.04791421 9.3675,5.98575 L9.087,5.2905 C9.06823582,5.24435818 9.06860306,5.19264629 9.0880207,5.14677564 C9.10743834,5.10090498 9.1443103,5.064646 9.1905,5.046 L9.1905,5.046 Z M14.388,17.91075 C14.4341418,17.8919858 14.4858537,17.8923531 14.5317244,17.9117707 C14.577595,17.9311883 14.613854,17.9680603 14.6325,18.01425 L14.913,18.7095 C14.9409076,18.7720606 14.9324765,18.8448612 14.8910089,18.8993873 C14.8495413,18.9539135 14.7816384,18.9814853 14.7138963,18.9713035 C14.6461542,18.9611217 14.5893566,18.914807 14.56575,18.8505 L14.2845,18.15525 C14.2657358,18.1091082 14.2661031,18.0573963 14.2855207,18.0115256 C14.3049383,17.965655 14.3418103,17.929396 14.388,17.91075 L14.388,17.91075 Z M5.09625,9.06975 C5.11560036,9.02386418 5.15240978,8.98756106 5.19855919,8.96884803 C5.24470859,8.95013501 5.29640655,8.95054947 5.34225,8.97 L6.03225,9.26325 C6.12339716,9.3061257 6.16438202,9.41335632 6.12506861,9.50609566 C6.08575519,9.598835 5.98019236,9.64394214 5.886,9.60825 L5.196,9.31575 C5.15011418,9.29639964 5.11381106,9.25959022 5.09509803,9.21344081 C5.07638501,9.16729141 5.07679947,9.11559345 5.09625,9.06975 L5.09625,9.06975 Z M17.86875,14.49075 C17.9093383,14.3958944 18.0189356,14.3516533 18.114,14.39175 L18.804,14.68425 C18.8682615,14.7086005 18.9140533,14.7661542 18.9233407,14.8342441 C18.9326281,14.902334 18.9039228,14.970049 18.8485302,15.0107202 C18.7931376,15.0513914 18.719934,15.0585014 18.65775,15.02925 L17.96775,14.73675 C17.9218642,14.7173996 17.8855611,14.6805902 17.866848,14.6344408 C17.848135,14.5882914 17.8485495,14.5365935 17.868,14.49075 L17.86875,14.49075 Z M12.65925,12.65925 L11.34,11.34 L8.23425,15.765 L12.6585,12.6585 L12.65925,12.65925 Z M17.30325,6.69675 L12.92775,12.92775 L6.69675,17.30325 L11.07225,11.07225 L17.30325,6.69675 Z"/>
  </defs>
  <g fill="none" fill-rule="evenodd">
    <polygon points="0 0 24 0 24 24 0 24"/>
    <mask id="safari-b" fill="#fff">
      <use xlink:href="#safari-a"/>
    </mask>
    <use fill="#000" xlink:href="#safari-a"/>
    <g fill="#000" mask="url(#safari-b)">
      <rect width="24" height="24"/>
    </g>
  </g>
</svg>

<svg xmlns="http://www.w3.org/2000/svg" xmlns:xlink="http://www.w3.org/1999/xlink" width="24" height="24" viewBox="0 0 24 24">
  <defs>
    <path id="safari-a" d="M12 21a9 9 0 1 1 0-18 9 9 0 0 1 0 18zm0-.563a8.438 8.438 0 1 0 0-16.875 8.438 8.438 0 0 0 0 16.875zM12 4.5c.104 0 .188.084.188.188v.75a.187.187 0 1 1-.376 0v-.75c0-.104.084-.188.188-.188zm0 13.875c.104 0 .188.084.188.188v.75a.187.187 0 1 1-.376 0v-.75c0-.104.084-.188.188-.188zm5.303-11.678a.188.188 0 0 1 0 .264l-.53.531a.188.188 0 0 1-.265-.265l.53-.53a.188.188 0 0 1 .265 0zm-9.81 9.81a.188.188 0 0 1 0 .266l-.532.53a.188.188 0 1 1-.264-.265l.53-.53a.188.188 0 0 1 .265 0zm-.796-9.81a.188.188 0 0 1 .264 0l.531.53a.188.188 0 1 1-.265.266l-.53-.53a.188.188 0 0 1 0-.266zm9.81 9.81a.188.188 0 0 1 .266 0l.53.531a.188.188 0 1 1-.265.265l-.53-.53a.188.188 0 0 1 0-.265zM4.5 12c0-.104.084-.188.188-.188h.75a.187.187 0 1 1 0 .376h-.75A.187.187 0 0 1 4.5 12zm13.875 0c0-.104.084-.188.188-.188h.75a.187.187 0 1 1 0 .376h-.75a.187.187 0 0 1-.188-.188zM14.93 5.096a.188.188 0 0 1 .1.246l-.293.69a.187.187 0 1 1-.345-.146l.292-.69a.188.188 0 0 1 .246-.1zM9.51 17.87c.095.04.14.15.099.245l-.293.69a.187.187 0 0 1-.345-.146l.293-.69a.188.188 0 0 1 .246-.1zm9.444-8.68a.188.188 0 0 1-.104.245l-.695.28a.188.188 0 1 1-.14-.347l.694-.28a.188.188 0 0 1 .245.103zM6.089 14.388a.188.188 0 0 1-.103.245l-.696.28a.188.188 0 1 1-.14-.347l.695-.281a.188.188 0 0 1 .244.103zM9.19 5.046a.188.188 0 0 1 .244.103l.282.696a.188.188 0 0 1-.348.14l-.281-.695a.188.188 0 0 1 .104-.244zm5.198 12.865a.188.188 0 0 1 .245.103l.28.695a.187.187 0 1 1-.347.142l-.282-.696a.188.188 0 0 1 .104-.244zM5.096 9.07a.188.188 0 0 1 .246-.1l.69.293a.188.188 0 0 1-.146.345l-.69-.292a.188.188 0 0 1-.1-.246zm12.773 5.42a.187.187 0 0 1 .245-.098l.69.292a.188.188 0 1 1-.146.345l-.69-.292a.188.188 0 0 1-.1-.246zm-5.21-1.83l-1.319-1.32-3.106 4.425 4.425-3.107v.001zm4.644-5.963l-4.375 6.23-6.231 4.376 4.375-6.23 6.231-4.376z"/>
  </defs>
  <g fill="none" fill-rule="evenodd">
    <polygon points="0 0 24 0 24 24 0 24"/>
    <mask id="safari-b" fill="#fff">
      <use xlink:href="#safari-a"/>
    </mask>
    <use fill="#000" xlink:href="#safari-a"/>
    <g fill="#000" mask="url(#safari-b)">
      <rect width="24" height="24"/>
    </g>
  </g>
</svg>
